X: 89
T: Ankara`nın Taşına Bak
C: -
O: Turkey
F: http://compmusic.upf.edu/node/140
N: neva--turku--nimsofyan--ankaranin_tasina--ankara
N: makam= neva
N: form= turku
N: usul= nimsofyan = 2/4
M: 2/4
L: 1/16
K: C _2/4B ^3/4f  
Q: 1/4=57
%%MIDI tuningsystem comma53
d2cd e3d  | c3/2B/ce d3c  | B3/2A/Bd c3B  | \
w:  ARANAĞME  |   |   | 
A2Ac B3A  | 
w:   | 
A2dd A2z2  | d2cd e3d  | c3/2B/ce d3c  | \
w:   |  ARANAĞME  |   | 
B3/2A/Bd c3B  | 
w:   | 
A2Ac B3A  | A2dd A2z2  | d2ef g3f  | e2eg f3e  | \
w:   |   |  An ka ra nın   |  ta şı na  bak    | 
d2ee e3d  | 
w:  Göz le ri min   | 
d2gg d2z2  | d2ef g3f  | e2eg f3e  | d2ee e3d  | \
w:  ya şı na  bak    |  An ka ra nın   |  ta şı na  bak    |  Göz le ri min   | 
d2gg d2z2  | 
w:  ya şı na  bak    | 
d2cd e3d  | c3/2B/ce d3c  | B3/2A/Bd c3B  | \
w:  Biz  düş ma nı   |  e *  sir  al dık    |  Şu  *  fe le ğin   | 
A2Ac B3A  | 
w:  i şi ne  bak   | 
A2dd A2z2  | d2cd e3d  | c3/2B/ce d3c  | \
w:  i şi ne  bak    |  Biz  düş ma nı   |  e *  sir  al dık    | 
B3/2A/Bd c3B  | 
w:  Şu  *  fe le ğin   | 
A2Ac B3A  | A2dd A2z2  | d2cd e3d  | c3/2B/ce d3c  | 
w:  i şi ne  bak   |  i şi ne  bak    |  ARANAĞME  |   | 
B3/2A/Bd c3B  | A2Ac B3A  | A2dd A2z2  | \
w:   |   |   | 
d2cd e3d  | 
w:  ARANAĞME  | 
c3/2B/ce d3c  | B3/2A/Bd c3B  | A2Ac B3A  | \
w:   |   |   | 
A2dd A2z2  | 
w:   | 
d2ef g3f  | e2eg f3e  | d2ee e3d  | d2gg d2z2  | \
w:  An ka ra nın   |  ta şı na  bak    |  Göz le ri min   |  ya şı na  bak    | 
d2ef g3f  | 
w:  An ka ra nın   | 
e2eg f3e  | d2ee e3d  | d2gg d2z2  | d2cd e3d  | \
w:  ta şı na  bak    |  Göz le ri min   |  ya şı na  bak    |  Biz  düş ma nı   | 
c3/2B/ce d3c  | 
w:  e *  sir  al dık    | 
B3/2A/Bd c3B  | A2Ac B3A  | A2dd A2z2  | \
w:  Şu  *  fe le ğin   |  i şi ne  bak   |  i şi ne  bak    | 
d2cd e3d  | 
w:  Biz  düş ma nı   | 
c3/2B/ce d3c  | B3/2A/Bd c3B  | A2Ac B3A  | \
w:  e *  sir  al dık    |  Şu  *  fe le ğin   |  i şi ne  bak   | 
A2dd A2z2  | 
w:  i şi ne  bak    | 
|


